X:1
T:Dinny O'Brian's
S:Planxty
Z:Juergen.Gier@post.rwth-aachen.de
R:Hornpipe
L:1/8
M:4/4
K:G
DE|GABG ABcA|defa gfdc|BGBd (3ABc AF|GFGF DEFD|\
G2BG ABcA|defa gfdc|BGBd cAFG|(3ABA GFG2::Bd|\
g2ga gfdf|g2bg afde|dffg afge|fdec dcAF|\
G2BG ABcA|defa gfdc|BGBd cAFG|(3ABA GFG2:|
